!!!COM:	Martini, Johannes
!!!CDT:	~1440///-~1497//
!!!OTL:	Exultet celum laudibus
!!!AGN:	Motet
!!!SCT:	Mar2049
!!!SCA:	Mar2049
!!!voices:	3
**kern	**kern	**kern
*staff3	*staff2	*staff1
*Ivox	*Ivox	*Ivox
*I"Tenor	*I"Altus	*I"Superius
*I'T	*I'A	*I'S
*>[A,B]	*>[A,B]	*>[A,B]
*>A	*>A	*>A
*clefF4	*clefGv2	*clefG2
*k[]	*k[]	*k[]
*M2/1	*M2/1	*M2/1
*met(C|)	*met(C|)	*met(C|)
!!section: Exultet celum laudibus
!!!OMD: Exultet celum laudibus
=1-	=1-	=1-
0r	1F	0r
.	1F	.
=2	=2	=2
0r	1G	0r
.	2.F/	.
.	4G/	.
=3	=3	=3
0r	2A/	1f
.	2.B-i\	.
.	.	1f
.	4A/	.
.	4G/	.
.	4F/	.
=4	=4	=4
1r	2.E/	1g
.	4D/	.
1F	1F	1f
=5	=5	=5
1F	1D	1f
1G	2C/	2e/
.	2E/	2c/
=6	=6	=6
1F	2D/	1d
.	2.A/	.
1F	.	1c
.	4B\	.
.	[2c\	.
=7	=7	=7
2E\	2c\]	1r
2C/	4B\	.
.	4A/	.
1D	1B	1d
=8	=8	=8
1C	1c	2.e/
.	.	4f/
1r	2B\	2g/
.	2c\	[2a/
=9	=9	=9
1D	1A	2a/]
.	.	2f/
2.E\	2.G/	2g/
.	.	[2e/
4F\	4A/	.
=10	=10	=10
2G\	2B\	4e/]
.	.	4d/
1A	1c	4c/
.	.	4B/
.	.	2f/
2G\	[2B\	[2e/
=11	=11	=11
1F	2B\]	2e/]
.	2A/	2d/
[1E	1B	1e
=12	=12	=12
1E]	2r	1g
.	1G	.
1r	.	1a
.	4F/	.
.	4E/	.
=13	=13	=13
1r	1F	1a
1G	2r	1g
.	[2g\	.
=14	=14	=14
1A	2g\]	1r
.	4f\	.
.	4e\	.
1A	1f	1a
=15	=15	=15
1G	2r	1.b-
.	1G	.
1r	.	.
.	4F/	4a/
.	4E/	4g/
=16	=16	=16
1A	1F	4a/
.	.	4g/
.	.	4f/
.	.	4e/
[1B	2r	2d/
.	[2d\	[2g/
=17	=17	=17
2B\]	2d\]	2g/]
4A\	4c\	4f#i/
4G\	4B\	4e/
1A	1c	1f#i
=18	=18	=18
0G	2d\	1g
.	1e	.
.	.	1r
.	4d\	.
.	4c\	.
=19	=19	=19
0r	4d\	1f
.	4c\	.
.	4B\	.
.	4A/	.
.	2G/	1g
.	4F/	.
.	4E/	.
=20	=20	=20
1F	1D	1f
1G	1C	1e
=21	=21	=21
1F	2r	1a
.	1c	.
2E\	.	2g/
2D\	2d\	2f/
=22	=22	=22
1E	2c\	2g/
.	1B	1e
1F	.	.
.	2A/	2d/
=23	=23	=23
1E	2B\	1e
.	2.c\	.
1r	.	1e
.	4B\	.
.	4A/	.
.	4G/	.
=24	=24	=24
1r	1A	1f
1E	1G	1g
=25	=25	=25
1F	2r	2.f/
.	2A/	.
.	.	4e/
1G	2B\	1d
.	[2d\	.
=26	=26	=26
2F\	2d\]	2r
2E\	2c\	2e/
1D	4d\	2f/
.	4c\	.
.	4B\	2g/
.	4A/	.
=27	=27	=27
2r	1c	1e
2E\	.	.
2F\	2A/	2d/
2G\	[2B\	[2e/
=28	=28	=28
1E	4B\]	4e/]
.	4A/	4d/
.	1G	1c
1D	.	.
.	2F/	2B/
=29	=29	=29
[0C	1.G	0c
.	[2A/	.
=30	=30	=30
0C]	4A/]	1r
.	4B\	.
.	2.c\	.
.	.	1g
.	4d\	.
.	[2e\	.
=31	=31	=31
0r	4e\]	1g
.	4d\	.
.	4c\	.
.	4B\	.
.	1A	1f
=32	=32	=32
1G	2G/	1g
.	2.B\	.
1G	.	1r
.	4c\	.
.	[2d\	.
=33	=33	=33
1F	2d\]	1a
.	2c\	.
1G	2B\	1b
.	[2G/	.
=34	=34	=34
1r	2G/]	2b\
.	4F/	1cc
.	4E/	.
1A	2F/	.
.	2c\	4b\
.	.	4a/
=35	=35	=35
2B\	2d\	1g
1c	1e	.
.	.	2e/
4B\	4d\	2f/
4A\	4c\	.
=36	=36	=36
1G	1B	2g/
.	.	1e
2E\	2G/	.
2F\	2A/	2d/
=37	=37	=37
2G\	1B	2e/
1E	.	1g
.	2c\	.
2D\	[2d\	[2f/
=38	=38	=38
2E\	4d\]	2f/]
.	4c\	.
2G\	1B	1e
1F	.	.
.	2A/	2d/
=39	=39	=39
0El	0Bl	0el
=40||	=40||	=40||
*>B	*>B	*>B
!!section: Vos, seculi
!!!OMD: Vos, seculi
1F	2.F/	0r
.	4G/	.
1F	1A	.
=41	=41	=41
1G	1B-i	1r
[1F	2.A/	1f
.	4Bni\	.
=42	=42	=42
1F]	2c\	1f
.	2d\	.
1E	2G/	1g
.	[2c\	.
=43	=43	=43
0D	2c\]	0f
.	4B\	.
.	4A/	.
.	1B	.
=44	=44	=44
1C	1c	1e
1r	1G	[1d
=45	=45	=45
1D	1F	1d]
2E\	2G/	1c
[2F\	[2A/	.
=46	=46	=46
2F\]	2A/]	1r
2E\	2G/	.
2F\	2A/	1d
[2G\	[2B\	.
=47	=47	=47
2G\]	4B\]	2e/
.	4c\	.
2D\	1d	1f
2F\	.	.
2G\	2B\	2e/
=48	=48	=48
2A\	2c\	2f/
2G\	2d\	2.g/
1E	4e\	.
.	4d\	4a/
.	4c\	[2e/
.	4B\	.
=49	=49	=49
1F	2.A/	2e/]
.	.	2d/
.	4G/	.
1E	1B	1e
=50	=50	=50
0r	2r	1g
.	1c	.
.	.	2a/
.	2B\	[2b\
=51	=51	=51
1G	1d	4b\]
.	.	4a/
.	.	2b\
2A\	2c\	2cc\
[2B\	[2d\	2b\
=52	=52	=52
4B\]	4d\]	1g
4A\	4c\	.
2B\	2d\	.
2c\	2e\	2a/
2B\	[2d\	2g/
=53	=53	=53
1G	2d\]	1g
.	1g	.
1A	.	2r
.	2f#i\	2a/
=54	=54	=54
1G	1g	1b-
2r	1c	1a
2A\	.	.
=55	=55	=55
1B	2r	1g
.	2G/	.
1A	2A/	1cc
.	2F/	.
=56	=56	=56
2G\	2G/	2b\
1c	1F	1a
2B\	2G/	[2g/
=57	=57	=57
1A	1D	2g/]
.	.	2f#i/
1G	2r	1g
.	[2d\	.
=58	=58	=58
1F	2d\]	0r
.	2c\	.
1G	2B\	.
.	[2e\	.
=59	=59	=59
1F	2e\]	1f
.	2d\	.
2.E\	1e	1g
4D\	.	.
=60	=60	=60
1A	1c	1f
2G\	2B\	2e/
[2F\	[2A/	2d/
=61	=61	=61
2F\]	2A/]	1a
1E	2B\	.
.	2c\	2g/
2D\	2d\	[2f/
=62	=62	=62
2E\	2c\	4f/]
.	.	4e/
2G\	1B	1e
1F	.	.
.	2A/	2d/
=63	=63	=63
1E	1B	1e
1E	2G/	1r
.	[2c\	.
=64	=64	=64
1F	2c\]	0r
.	2d\	.
2G\	2e\	.
2F\	[2d\	.
=65	=65	=65
1E	2d\]	1e
.	2c#i\	.
1D	1d	1f
=66	=66	=66
1r	2B\	2g/
.	2A/	2f/
1E	2G/	1e
.	[2c\	.
=67	=67	=67
2F\	2c\]	1d
1G	2B\	.
.	1A	1r
2F\	.	.
=68	=68	=68
2G\	2B\	1e
2C/	2c\	.
2D\	2A/	2f/
[2E\	[2G/	[2g/
=69	=69	=69
2E\]	2G/]	2g/]
2D\	2d\	2f/
2E\	2c\	2g/
[2F\	[2A/	2c/
=70	=70	=70
2F\]	2A/]	2d/
2E\	1G	1c
1D	.	.
.	2F/	2B/
=71	=71	=71
1C	1G	0c
1r	1A	.
=72	=72	=72
1G	2B\	0r
.	2.d\	.
2F\	.	.
.	4c\	.
2G\	4B\	.
.	4A/	.
=73	=73	=73
2A\	2c\	0r
1G	2B\	.
.	1A	.
2F#i\	.	.
=74	=74	=74
1G	1G	1g
1r	2D/	2f/
.	2E/	2g/
=75	=75	=75
1r	2F/	2a/
.	2G/	1g
1A	1D	.
.	.	2f#i/
=76	=76	=76
2G\	1r	1g
2E\	.	.
2F\	[1d	1r
[2G\	.	.
=77	=77	=77
2G\]	2d\]	1r
4F\	2e\	.
4E\	.	.
1D	1f	1a
=78	=78	=78
1E	2e\	2g/
.	2c\	2e/
2D\	2d\	2f/
2E\	[2B\	[2g/
=79	=79	=79
2G\	2B\]	2g/]
2A\	4A/	4f/
.	4G/	4e/
1F	1A	2.d/
.	.	4c/
=80	=80	=80
0El	0Bl	0el
==	==	==
*-	*-	*-
!!!RDF**kern: l=long note in original notation
!!!RDF**kern: i=editorial accidental
!!!ENC:	Chris Gage 08-15-2014
!!!END:	2014/10/06/
!!!EED:	Jesse Rodin
!!!EEV:	2014/10/17/
!!!ONB:	Translated from MusicXML and edited on 2014/10/17/ by Craig Sapp
!!muse2ps: C^@{COM}^i2I150v85,85,150Q16
